lib/brands/icons/adobe-stock.svg

<svg xmlns="http://www.w3.org/2000/svg" fill="none" aria-hidden="true" viewBox="0 0 48 48"><g id="adobe-stock-Icon"><g id="Group"><path id="bg" fill="#000B1D" d="M6 19.0286C6 14.4681 6 12.1879 6.88752 10.4461C7.6682 8.9139 8.9139 7.6682 10.4461 6.88752C12.1879 6 14.4681 6 19.0286 6H28.9714C33.5319 6 35.8121 6 37.5539 6.88752C39.0861 7.6682 40.3318 8.9139 41.1125 10.4461C42 12.1879 42 14.4681 42 19.0286V28.9714C42 33.5319 42 35.8121 41.1125 37.5539C40.3318 39.0861 39.0861 40.3318 37.5539 41.1125C35.8121 42 33.5319 42 28.9714 42H19.0286C14.4681 42 12.1879 42 10.4461 41.1125C8.9139 40.3318 7.6682 39.0861 6.88752 37.5539C6 35.8121 6 33.5319 6 28.9714V19.0286Z"/><g id="Vector"><path fill="white" d="M19.5159 32.9979C18.0796 33.0248 16.566 32.7928 15.254 32.1693C15.1199 32.1079 15.0602 31.9698 15.0602 31.7549V28.8086C15.0602 28.6834 15.1635 28.6135 15.2689 28.6859C16.561 29.5138 18.0821 29.9749 19.6053 29.9749C20.5601 29.9749 22.1386 29.7867 22.1386 28.471C22.1386 26.8822 19.8527 26.3582 18.741 25.8777C16.6779 24.9625 15.0006 23.6192 15.0006 21.1359C14.9708 19.3559 15.9842 17.7139 17.5638 16.9927C19.4838 16.0561 22.5205 16.044 24.4782 16.9927C24.5825 17.0541 24.657 17.1768 24.6421 17.3149V20.1078C24.6421 20.2309 24.5147 20.2626 24.4335 20.1999C23.3022 19.6174 22.0158 19.3423 20.7527 19.3712C19.9695 19.3712 18.7784 19.4641 18.3536 20.2766C17.5308 21.9711 20.2524 22.7973 21.4084 23.2536C23.529 24.1456 25.4915 25.5895 25.4915 28.1948C25.5462 31.5709 22.3047 32.9979 19.5159 32.9979Z"/><path fill="white" d="M33.628 30.2973V32.3228C33.628 32.507 33.5683 32.6144 33.4342 32.6451C30.7601 33.563 27.9951 32.6301 27.9951 29.4533V23.2998H26.5496C26.4155 23.2998 26.3559 23.223 26.3559 23.0849L26.3708 20.645C26.3708 20.5069 26.4453 20.4455 26.5794 20.4455H28.0249C28.0783 19.4555 28.136 18.4669 28.2633 17.4839C28.2939 17.3894 28.3622 17.2862 28.457 17.2537L31.3182 16.8854C31.4403 16.8435 31.4821 16.9225 31.4821 17.0388C31.3936 18.1778 31.4055 19.3195 31.3778 20.4609H33.4938C33.5832 20.4609 33.6429 20.5222 33.6429 20.6604L33.628 23.1463C33.6429 23.223 33.5832 23.2998 33.5087 23.3151H31.3927V28.64C31.3927 29.1924 31.4523 29.6067 31.6311 29.8369C32.0168 30.3333 32.8777 30.2075 33.4342 30.1438C33.5477 30.1048 33.628 30.1831 33.628 30.2973Z"/></g></g></g></svg>

<svg xmlns="http://www.w3.org/2000/svg" fill="none" aria-hidden="true" viewBox="0 0 48 48"><path fill="#000B1D" d="M6 19.029c0-4.56 0-6.841.888-8.583a8.143 8.143 0 0 1 3.558-3.558C12.188 6 14.468 6 19.03 6h9.942c4.56 0 6.841 0 8.583.888a8.143 8.143 0 0 1 3.558 3.558C42 12.188 42 14.468 42 19.03v9.942c0 4.56 0 6.841-.888 8.583a8.143 8.143 0 0 1-3.558 3.558C35.812 42 33.532 42 28.97 42h-9.94c-4.56 0-6.841 0-8.583-.888a8.143 8.143 0 0 1-3.558-3.558C6 35.812 6 33.532 6 28.97v-9.94Z"/><path fill="#fff" d="M19.516 32.998c-1.436.027-2.95-.205-4.262-.829-.134-.061-.194-.2-.194-.414v-2.946c0-.126.104-.196.209-.123a8.099 8.099 0 0 0 4.336 1.289c.955 0 2.534-.188 2.534-1.504 0-1.589-2.286-2.113-3.398-2.593-2.063-.916-3.74-2.259-3.74-4.742-.03-1.78.983-3.422 2.563-4.143 1.92-.937 4.956-.949 6.914 0a.335.335 0 0 1 .164.322v2.793c0 .123-.127.155-.209.092a7.704 7.704 0 0 0-3.68-.829c-.784 0-1.975.093-2.4.906-.822 1.694 1.9 2.52 3.055 2.977 2.121.892 4.083 2.335 4.083 4.94.055 3.377-3.186 4.804-5.975 4.804Zm14.112-2.701v2.026c0 .184-.06.291-.194.322-2.674.918-5.439-.015-5.439-3.192V23.3H26.55c-.134 0-.194-.077-.194-.215l.015-2.44c0-.138.074-.2.208-.2h1.446c.053-.99.111-1.978.238-2.961.03-.095.1-.198.194-.23l2.861-.369c.122-.042.164.037.164.154-.088 1.139-.076 2.28-.104 3.422h2.116c.09 0 .149.061.149.2l-.015 2.485c.015.077-.045.154-.12.17h-2.115v5.324c0 .552.06.967.238 1.197.386.496 1.247.37 1.803.307.114-.04.194.04.194.153Z"/></svg>
